; generated by Slic3r 0.9.8 on 2013-03-23 at 12:20:35

; layer_height = 0.3
; perimeters = 3
; top_solid_layers = 3
; bottom_solid_layers = 3
; fill_density = 0.3
; perimeter_speed = 50
; infill_speed = 80
; travel_speed = 130
; scale = 1
; nozzle_diameter = 0.4
; filament_diameter = 2.85
; extrusion_multiplier = 1
; perimeters extrusion width = 0.42mm
; infill extrusion width = 0.42mm
; first layer extrusion width = 0.42mm

M107
; G28 home all axes
G90 ; use absolute coordinates
G21 ; set units to millimeters
G92 E0
M82 ; use absolute distances for extrusion
G1 F1800.000 E-2.60000
G1 Z0.600
G92 E0
G1 X35.210 Y111.200 F7800.000
G1 Z0.300
G1 F1800.000 E2.60000
G1 X34.680 Y111.180 F900.000 E2.61045
G1 X33.890 Y111.060 E2.62619
G1 X33.380 Y110.930 E2.63656
G1 X32.630 Y110.660 E2.65226
G1 X32.150 Y110.430 E2.66274
G1 X31.480 Y110.000 E2.67842
G1 X31.060 Y109.680 E2.68883
G1 X30.670 Y109.320 E2.69928
G1 X30.310 Y108.930 E2.70973
G1 X29.990 Y108.510 E2.72014
G1 X29.560 Y107.840 E2.73582
G1 X29.330 Y107.360 E2.74630
G1 X29.060 Y106.610 E2.76200
G1 X28.930 Y106.100 E2.77237
G1 X28.810 Y105.310 E2.78811
G1 X28.790 Y104.780 E2.79856
G1 X28.790 Y75.210 E3.38104
G1 X28.810 Y74.680 E3.39149
G1 X28.880 Y74.150 E3.40202
G1 X28.990 Y73.630 E3.41249
G1 X29.140 Y73.130 E3.42277
G1 X29.330 Y72.630 E3.43331
G1 X29.560 Y72.150 E3.44379
G1 X29.990 Y71.480 E3.45947
G1 X30.310 Y71.060 E3.46988
G1 X30.670 Y70.670 E3.48033
G1 X31.060 Y70.310 E3.49079
G1 X31.480 Y69.990 E3.50119
G1 X32.150 Y69.560 E3.51687
G1 X32.880 Y69.230 E3.53265
G1 X33.630 Y68.990 E3.54816
G1 X34.150 Y68.880 E3.55863
G1 X34.680 Y68.810 E3.56916
G1 X35.210 Y68.790 E3.57961
G1 X154.780 Y68.790 E5.93494
G1 X155.310 Y68.810 E5.94539
G1 X155.840 Y68.880 E5.95592
G1 X156.360 Y68.990 E5.96639
G1 X157.110 Y69.230 E5.98190
G1 X157.600 Y69.440 E5.99241
G1 X158.070 Y69.700 E6.00299
G1 X158.720 Y70.140 E6.01845
G1 X159.130 Y70.490 E6.02907
G1 X159.500 Y70.860 E6.03937
G1 X159.850 Y71.270 E6.04999
G1 X160.290 Y71.920 E6.06545
G1 X160.550 Y72.390 E6.07603
G1 X160.760 Y72.880 E6.08654
G1 X161.000 Y73.630 E6.10205
G1 X161.110 Y74.150 E6.11252
G1 X161.180 Y74.680 E6.12305
G1 X161.200 Y75.210 E6.13350
G1 X161.200 Y79.780 E6.22352
G1 X161.180 Y80.320 E6.23416
G1 X161.150 Y80.590 E6.23951
G1 X161.060 Y81.120 E6.25010
G1 X160.990 Y81.390 E6.25560
G1 X160.840 Y81.900 E6.26607
G1 X160.640 Y82.410 E6.27686
G1 X160.260 Y83.130 E6.29290
G1 X159.960 Y83.580 E6.30355
G1 X159.440 Y84.200 E6.31949
G1 X159.050 Y84.570 E6.33008
G1 X158.630 Y84.920 E6.34085
G1 X158.180 Y85.220 E6.35150
G1 X118.180 Y110.220 E7.28067
G1 X117.700 Y110.500 E7.29162
G1 X117.450 Y110.620 E7.29708
G1 X116.940 Y110.820 E7.30787
G1 X116.420 Y110.990 E7.31865
G1 X115.610 Y111.150 E7.33491
G1 X115.330 Y111.180 E7.34046
G1 X114.780 Y111.200 E7.35130
G1 X35.273 Y111.200 E8.91746
G1 X35.210 Y111.200 E8.91870
G1 F1800.000 E6.31870
G1 Z0.600
G92 E0
G1 X153.950 Y76.050 F7800.000
G1 Z0.300
G1 F1800.000 E2.60000
G1 X153.950 Y78.950 F900.000 E2.65713
G1 X38.950 Y78.950 E4.92245
G1 X38.950 Y101.050 E5.35777
G1 X113.950 Y101.050 E6.83515
G1 X113.950 Y103.950 E6.89228
G1 X36.050 Y103.950 E8.42680
G1 X36.050 Y76.050 E8.97639
G1 X153.887 Y76.050 E11.29760
G1 X153.950 Y76.050 E11.29883
G1 X154.369 Y75.631 F7800.000
G1 X154.369 Y79.369 F900.000 E11.37247
G1 X39.369 Y79.369 E13.63778
G1 X39.369 Y100.631 E14.05661
G1 X114.369 Y100.631 E15.53398
G1 X114.369 Y104.369 E15.60762
G1 X35.631 Y104.369 E17.15864
G1 X35.631 Y75.631 E17.72473
G1 X154.306 Y75.631 E20.06244
G1 X154.369 Y75.631 E20.06368
G1 X154.788 Y75.212 F7800.000
G1 X154.788 Y79.788 F900.000 E20.15382
G1 X39.788 Y79.788 E22.41913
G1 X39.788 Y100.212 E22.82145
G1 X114.788 Y100.212 E24.29883
G1 X114.788 Y104.788 E24.38897
G1 X35.212 Y104.788 E25.95648
G1 X35.212 Y75.212 E26.53908
G1 X154.725 Y75.212 E28.89330
G1 X154.788 Y75.212 E28.89453
G1 X154.579 Y75.575 F7800.000
G1 X153.665 Y76.602
G1 X153.398 Y76.335 F1440.000 E28.90197
G1 X152.805 Y76.335 E28.91367
G1 X153.665 Y77.195 E28.93765
G1 X153.665 Y77.788 E28.94935
G1 X152.212 Y76.335 E28.98988
G1 X151.619 Y76.335 E29.00157
G1 X153.665 Y78.381 E29.05864
G1 X153.355 Y78.665 E29.06693
G1 X151.025 Y76.336 E29.13191
G1 X150.432 Y76.335 E29.14360
G1 X152.762 Y78.665 E29.20857
G1 X152.169 Y78.665 E29.22026
G1 X149.840 Y76.335 E29.28524
G1 X149.246 Y76.335 E29.29694
G1 X151.575 Y78.665 E29.36192
G1 X150.983 Y78.665 E29.37361
G1 X148.653 Y76.335 E29.43858
G1 X148.060 Y76.335 E29.45028
G1 X150.390 Y78.664 E29.51525
G1 X149.796 Y78.665 E29.52695
G1 X147.467 Y76.335 E29.59193
G1 X146.874 Y76.335 E29.60362
G1 X149.203 Y78.665 E29.66859
G1 X148.610 Y78.665 E29.68030
G1 X146.280 Y76.336 E29.74527
G1 X145.688 Y76.335 E29.75696
G1 X148.017 Y78.665 E29.82194
G1 X147.424 Y78.664 E29.83363
G1 X145.095 Y76.335 E29.89860
G1 X144.501 Y76.335 E29.91031
G1 X146.831 Y78.665 E29.97528
G1 X146.238 Y78.665 E29.98697
G1 X143.908 Y76.335 E30.05195
G1 X143.315 Y76.336 E30.06365
G1 X145.644 Y78.665 E30.12863
G1 X145.051 Y78.665 E30.14032
G1 X142.722 Y76.335 E30.20529
G1 X142.129 Y76.335 E30.21699
G1 X144.459 Y78.664 E30.28196
G1 X143.865 Y78.665 E30.29367
G1 X141.536 Y76.335 E30.35864
G1 X140.943 Y76.335 E30.37033
G1 X143.272 Y78.665 E30.43530
G1 X142.679 Y78.665 E30.44701
G1 X140.349 Y76.336 E30.51198
G1 X139.756 Y76.335 E30.52367
G1 X142.086 Y78.665 E30.58865
G1 X141.493 Y78.665 E30.60034
G1 X139.164 Y76.335 E30.66531
G1 X138.570 Y76.335 E30.67702
G1 X140.900 Y78.665 E30.74199
G1 X140.307 Y78.665 E30.75369
G1 X137.977 Y76.335 E30.81866
G1 X137.384 Y76.336 E30.83037
G1 X139.713 Y78.665 E30.89534
G1 X139.120 Y78.665 E30.90703
G1 X136.791 Y76.335 E30.97200
G1 X136.198 Y76.335 E30.98370
G1 X138.528 Y78.665 E31.04867
G1 X137.934 Y78.665 E31.06038
G1 X135.604 Y76.335 E31.12535
G1 X135.012 Y76.335 E31.13704
G1 X137.341 Y78.665 E31.20202
G1 X136.748 Y78.664 E31.21371
G1 X134.419 Y76.335 E31.27868
G1 X133.825 Y76.335 E31.29039
G1 X136.155 Y78.665 E31.35536
G1 X135.562 Y78.665 E31.36705
G1 X133.232 Y76.335 E31.43202
G1 X132.639 Y76.336 E31.44373
G1 X134.968 Y78.665 E31.50870
G1 X134.376 Y78.665 E31.52039
G1 X132.046 Y76.335 E31.58537
G1 X131.453 Y76.335 E31.59706
G1 X133.783 Y78.664 E31.66203
G1 X133.189 Y78.665 E31.67374
G1 X130.860 Y76.335 E31.73871
G1 X130.267 Y76.335 E31.75041
G1 X132.596 Y78.665 E31.81538
G1 X132.003 Y78.665 E31.82708
G1 X129.673 Y76.336 E31.89206
G1 X129.081 Y76.335 E31.90375
G1 X131.410 Y78.665 E31.96872
G1 X130.817 Y78.664 E31.98042
G1 X128.488 Y76.335 E32.04539
G1 X127.894 Y76.335 E32.05710
G1 X130.224 Y78.665 E32.12207
G1 X129.631 Y78.665 E32.13376
G1 X127.301 Y76.335 E32.19873
G1 X126.708 Y76.336 E32.21044
G1 X129.037 Y78.665 E32.27541
G1 X128.444 Y78.665 E32.28710
G1 X126.115 Y76.335 E32.35208
G1 X125.522 Y76.335 E32.36377
G1 X127.852 Y78.665 E32.42874
G1 X127.258 Y78.665 E32.44045
G1 X124.929 Y76.335 E32.50542
G1 X124.336 Y76.335 E32.51712
G1 X126.665 Y78.665 E32.58209
G1 X126.072 Y78.665 E32.59380
G1 X123.742 Y76.336 E32.65877
G1 X123.149 Y76.335 E32.67046
G1 X125.479 Y78.665 E32.73543
G1 X124.886 Y78.665 E32.74713
G1 X122.557 Y76.335 E32.81210
G1 X121.963 Y76.335 E32.82381
G1 X124.292 Y78.665 E32.88878
G1 X123.700 Y78.665 E32.90047
G1 X121.370 Y76.335 E32.96545
G1 X120.777 Y76.335 E32.97714
G1 X123.107 Y78.664 E33.04211
G1 X122.513 Y78.665 E33.05382
G1 X120.184 Y76.335 E33.11879
G1 X119.591 Y76.335 E33.13048
G1 X121.920 Y78.665 E33.19545
G1 X121.327 Y78.665 E33.20716
G1 X118.997 Y76.336 E33.27213
G1 X118.405 Y76.335 E33.28383
G1 X120.734 Y78.665 E33.34880
G1 X120.141 Y78.664 E33.36049
G1 X117.812 Y76.335 E33.42547
G1 X117.218 Y76.335 E33.43717
G1 X119.548 Y78.665 E33.50215
G1 X118.955 Y78.665 E33.51384
G1 X116.625 Y76.335 E33.57881
G1 X116.032 Y76.336 E33.59052
G1 X118.361 Y78.665 E33.65549
G1 X117.768 Y78.665 E33.66718
G1 X115.439 Y76.335 E33.73216
G1 X114.846 Y76.335 E33.74385
G1 X117.176 Y78.664 E33.80882
G1 X116.582 Y78.665 E33.82053
G1 X114.253 Y76.335 E33.88550
G1 X113.660 Y76.335 E33.89719
G1 X115.989 Y78.665 E33.96216
G1 X115.396 Y78.665 E33.97387
G1 X113.066 Y76.336 E34.03884
G1 X112.473 Y76.335 E34.05053
G1 X114.803 Y78.665 E34.11551
G1 X114.210 Y78.665 E34.12720
G1 X111.881 Y76.335 E34.19217
G1 X111.287 Y76.335 E34.20388
G1 X113.617 Y78.665 E34.26885
G1 X113.024 Y78.665 E34.28055
G1 X110.694 Y76.335 E34.34552
G1 X110.101 Y76.336 E34.35723
G1 X112.430 Y78.665 E34.42220
G1 X111.837 Y78.665 E34.43389
G1 X109.508 Y76.335 E34.49886
G1 X108.915 Y76.335 E34.51056
G1 X111.245 Y78.665 E34.57553
G1 X110.651 Y78.665 E34.58724
G1 X108.321 Y76.335 E34.65221
G1 X107.729 Y76.335 E34.66390
G1 X110.058 Y78.665 E34.72888
G1 X109.465 Y78.664 E34.74057
G1 X107.136 Y76.335 E34.80554
G1 X106.542 Y76.335 E34.81725
G1 X108.872 Y78.665 E34.88222
G1 X108.279 Y78.665 E34.89391
G1 X105.949 Y76.335 E34.95889
G1 X105.356 Y76.336 E34.97059
G1 X107.685 Y78.665 E35.03556
G1 X107.093 Y78.665 E35.04726
G1 X104.763 Y76.335 E35.11223
G1 X104.170 Y76.335 E35.12392
G1 X106.500 Y78.664 E35.18890
G1 X105.906 Y78.665 E35.20060
G1 X103.577 Y76.335 E35.26558
G1 X102.984 Y76.335 E35.27727
G1 X105.313 Y78.665 E35.34224
G1 X104.720 Y78.665 E35.35395
G1 X102.390 Y76.336 E35.41892
G1 X101.797 Y76.335 E35.43061
G1 X104.127 Y78.665 E35.49559
G1 X103.534 Y78.664 E35.50728
G1 X101.205 Y76.335 E35.57225
G1 X100.611 Y76.335 E35.58396
G1 X102.941 Y78.665 E35.64893
G1 X102.348 Y78.665 E35.66062
G1 X100.018 Y76.335 E35.72560
G1 X99.425 Y76.336 E35.73730
G1 X101.754 Y78.665 E35.80228
G1 X101.161 Y78.665 E35.81397
G1 X98.832 Y76.335 E35.87894
G1 X98.239 Y76.335 E35.89063
G1 X100.569 Y78.665 E35.95561
G1 X99.975 Y78.665 E35.96731
G1 X97.646 Y76.335 E36.03229
G1 X97.053 Y76.335 E36.04398
G1 X99.382 Y78.665 E36.10895
G1 X98.789 Y78.665 E36.12066
G1 X96.459 Y76.336 E36.18563
G1 X95.866 Y76.335 E36.19732
G1 X98.196 Y78.665 E36.26230
G1 X97.603 Y78.665 E36.27399
G1 X95.274 Y76.335 E36.33896
G1 X94.680 Y76.335 E36.35067
G1 X97.009 Y78.665 E36.41564
G1 X96.417 Y78.665 E36.42734
G1 X94.087 Y76.335 E36.49231
G1 X93.494 Y76.335 E36.50400
G1 X95.824 Y78.664 E36.56897
G1 X95.230 Y78.665 E36.58068
G1 X92.901 Y76.335 E36.64565
G1 X92.308 Y76.335 E36.65734
G1 X94.637 Y78.665 E36.72232
G1 X94.044 Y78.665 E36.73402
G1 X91.714 Y76.336 E36.79899
G1 X91.122 Y76.335 E36.81069
G1 X93.451 Y78.665 E36.87566
G1 X92.858 Y78.664 E36.88735
G1 X90.529 Y76.335 E36.95233
G1 X89.935 Y76.335 E36.96403
G1 X92.265 Y78.665 E37.02901
G1 X91.672 Y78.665 E37.04070
G1 X89.342 Y76.335 E37.10567
G1 X88.749 Y76.336 E37.11738
G1 X91.078 Y78.665 E37.18235
G1 X90.485 Y78.665 E37.19404
G1 X88.156 Y76.335 E37.25902
G1 X87.563 Y76.335 E37.27071
G1 X89.893 Y78.664 E37.33568
G1 X89.299 Y78.665 E37.34739
G1 X86.970 Y76.335 E37.41236
G1 X86.377 Y76.335 E37.42405
G1 X88.706 Y78.665 E37.48902
G1 X88.113 Y78.665 E37.50073
G1 X85.783 Y76.336 E37.56570
G1 X85.190 Y76.335 E37.57739
G1 X87.520 Y78.665 E37.64237
G1 X86.927 Y78.665 E37.65406
G1 X84.598 Y76.335 E37.71903
G1 X84.004 Y76.335 E37.73074
G1 X86.334 Y78.665 E37.79571
G1 X85.741 Y78.665 E37.80741
G1 X83.411 Y76.335 E37.87238
G1 X82.818 Y76.336 E37.88409
G1 X85.147 Y78.665 E37.94906
G1 X84.554 Y78.665 E37.96075
G1 X82.225 Y76.335 E38.02572
G1 X81.632 Y76.335 E38.03742
G1 X83.961 Y78.665 E38.10239
G1 X83.368 Y78.665 E38.11410
G1 X81.038 Y76.335 E38.17907
G1 X80.446 Y76.335 E38.19076
G1 X82.775 Y78.665 E38.25574
G1 X82.182 Y78.664 E38.26743
G1 X79.853 Y76.335 E38.33240
G1 X79.259 Y76.335 E38.34411
G1 X81.589 Y78.665 E38.40908
G1 X80.996 Y78.665 E38.42077
G1 X78.666 Y76.335 E38.48575
G1 X78.073 Y76.336 E38.49745
G1 X80.402 Y78.665 E38.56243
G1 X79.810 Y78.665 E38.57412
G1 X77.480 Y76.335 E38.63909
G1 X76.887 Y76.335 E38.65078
G1 X79.217 Y78.664 E38.71576
G1 X78.623 Y78.665 E38.72746
G1 X76.294 Y76.335 E38.79244
G1 X75.701 Y76.335 E38.80413
G1 X78.030 Y78.665 E38.86910
G1 X77.437 Y78.665 E38.88081
G1 X75.107 Y76.336 E38.94578
G1 X74.515 Y76.335 E38.95747
G1 X76.844 Y78.665 E39.02245
G1 X76.251 Y78.664 E39.03414
G1 X73.922 Y76.335 E39.09911
G1 X73.328 Y76.335 E39.11082
G1 X75.658 Y78.665 E39.17579
G1 X75.065 Y78.665 E39.18748
G1 X72.735 Y76.335 E39.25246
G1 X72.142 Y76.336 E39.26416
G1 X74.471 Y78.665 E39.32914
G1 X73.878 Y78.665 E39.34083
G1 X71.549 Y76.335 E39.40580
G1 X70.956 Y76.335 E39.41749
G1 X73.286 Y78.664 E39.48247
G1 X72.692 Y78.665 E39.49417
G1 X70.363 Y76.335 E39.55915
G1 X69.770 Y76.335 E39.57084
G1 X72.099 Y78.665 E39.63581
G1 X71.506 Y78.665 E39.64752
G1 X69.176 Y76.336 E39.71249
G1 X68.583 Y76.335 E39.72418
G1 X70.913 Y78.665 E39.78916
G1 X70.320 Y78.665 E39.80085
G1 X67.991 Y76.335 E39.86582
G1 X67.397 Y76.335 E39.87753
G1 X69.726 Y78.665 E39.94250
G1 X69.134 Y78.665 E39.95419
G1 X66.804 Y76.335 E40.01917
G1 X66.211 Y76.335 E40.03086
G1 X68.541 Y78.664 E40.09583
G1 X67.947 Y78.665 E40.10754
G1 X65.618 Y76.335 E40.17251
G1 X65.025 Y76.335 E40.18420
G1 X67.354 Y78.665 E40.24918
G1 X66.761 Y78.665 E40.26088
G1 X64.431 Y76.336 E40.32586
G1 X63.839 Y76.335 E40.33755
G1 X66.168 Y78.665 E40.40252
G1 X65.575 Y78.664 E40.41421
G1 X63.246 Y76.335 E40.47919
G1 X62.652 Y76.335 E40.49089
G1 X64.982 Y78.665 E40.55587
G1 X64.389 Y78.665 E40.56756
G1 X62.059 Y76.335 E40.63253
G1 X61.466 Y76.336 E40.64424
G1 X63.795 Y78.665 E40.70921
G1 X63.202 Y78.665 E40.72090
G1 X60.873 Y76.335 E40.78588
G1 X60.280 Y76.335 E40.79757
G1 X62.610 Y78.664 E40.86254
G1 X62.016 Y78.665 E40.87425
G1 X59.687 Y76.335 E40.93922
G1 X59.094 Y76.335 E40.95091
G1 X61.423 Y78.665 E41.01589
G1 X60.830 Y78.665 E41.02759
G1 X58.500 Y76.336 E41.09257
G1 X57.907 Y76.335 E41.10426
G1 X60.237 Y78.665 E41.16923
G1 X59.644 Y78.664 E41.18092
G1 X57.315 Y76.335 E41.24590
G1 X56.721 Y76.335 E41.25760
G1 X59.051 Y78.665 E41.32258
G1 X58.458 Y78.665 E41.33427
G1 X56.128 Y76.335 E41.39924
G1 X55.535 Y76.336 E41.41095
G1 X57.864 Y78.665 E41.47592
G1 X57.271 Y78.665 E41.48761
G1 X54.942 Y76.335 E41.55259
G1 X54.349 Y76.335 E41.56428
G1 X56.679 Y78.665 E41.62925
G1 X56.085 Y78.665 E41.64096
G1 X53.755 Y76.335 E41.70593
G1 X53.163 Y76.335 E41.71762
G1 X55.492 Y78.665 E41.78260
G1 X54.899 Y78.665 E41.79430
G1 X52.569 Y76.335 E41.85927
G1 X51.976 Y76.335 E41.87097
G1 X54.306 Y78.665 E41.93594
G1 X53.713 Y78.665 E41.94764
G1 X51.383 Y76.335 E42.01261
G1 X50.790 Y76.335 E42.02431
G1 X53.120 Y78.665 E42.08928
G1 X52.527 Y78.665 E42.10098
G1 X50.197 Y76.335 E42.16595
G1 X49.604 Y76.335 E42.17765
G1 X51.933 Y78.665 E42.24262
G1 X51.340 Y78.665 E42.25432
G1 X49.011 Y76.335 E42.31929
G1 X48.418 Y76.335 E42.33099
G1 X50.747 Y78.665 E42.39597
G1 X50.154 Y78.665 E42.40766
G1 X47.825 Y76.335 E42.47264
G1 X47.231 Y76.335 E42.48433
G1 X49.561 Y78.665 E42.54931
G1 X48.968 Y78.665 E42.56101
G1 X46.638 Y76.335 E42.62598
G1 X46.045 Y76.335 E42.63768
G1 X48.375 Y78.665 E42.70265
G1 X47.782 Y78.665 E42.71434
G1 X45.452 Y76.335 E42.77932
G1 X44.859 Y76.335 E42.79101
G1 X47.189 Y78.665 E42.85599
G1 X46.595 Y78.665 E42.86769
G1 X44.266 Y76.335 E42.93266
G1 X43.673 Y76.335 E42.94436
G1 X46.002 Y78.665 E43.00933
G1 X45.409 Y78.665 E43.02103
G1 X43.080 Y76.335 E43.08600
G1 X42.487 Y76.335 E43.09770
G1 X44.816 Y78.665 E43.16267
G1 X44.223 Y78.665 E43.17437
G1 X41.894 Y76.335 E43.23934
G1 X41.300 Y76.335 E43.25104
G1 X43.630 Y78.665 E43.31601
G1 X43.037 Y78.665 E43.32771
G1 X40.707 Y76.335 E43.39269
G1 X40.114 Y76.335 E43.40438
G1 X42.444 Y78.665 E43.46936
G1 X41.851 Y78.665 E43.48105
G1 X39.521 Y76.335 E43.54603
G1 X38.928 Y76.335 E43.55772
G1 X41.257 Y78.665 E43.62270
G1 X40.664 Y78.665 E43.63440
G1 X38.335 Y76.335 E43.69937
G1 X37.742 Y76.335 E43.71107
G1 X40.071 Y78.665 E43.77604
G1 X39.478 Y78.665 E43.78774
G1 X37.149 Y76.335 E43.85271
G1 X36.556 Y76.335 E43.86441
G1 X38.885 Y78.665 E43.92938
G1 X38.665 Y79.038 F7800.000
G1 X36.335 Y76.708 F1440.000 E43.99435
G1 X36.335 Y77.301 E44.00605
G1 X38.665 Y79.631 E44.07103
G1 X38.665 Y80.224 E44.08272
G1 X36.335 Y77.894 E44.14770
G1 X36.335 Y78.487 E44.15939
G1 X38.665 Y80.817 E44.22437
G1 X38.665 Y81.410 E44.23607
G1 X36.335 Y79.081 E44.30104
G1 X36.335 Y79.674 E44.31274
G1 X38.665 Y82.003 E44.37771
G1 X38.665 Y82.596 E44.38941
G1 X36.335 Y80.267 E44.45438
G1 X36.335 Y80.860 E44.46608
