; generated by Slic3r 0.8.5-dev on 2013-04-19 at 09:36:03

; layer_height = 0.3
; perimeters = 3
; solid_layers = 3
; fill_density = 0.4
; perimeter_speed = 30
; infill_speed = 60
; travel_speed = 130
; scale = 1
; nozzle_diameter = 0.4
; filament_diameter = 2.9
; extrusion_multiplier = 0.85
; single wall width = 0.42mm

M107
M104 S200 ; set temperature
G28 ; home all axes
M109 S200 ; wait for temperature to be reached
G90 ; use absolute coordinates
G21 ; set units to millimeters
G92 E0
M82 ; use absolute distances for extrusion
G1 Z0.300 F7800.000
G1 X35.490 Y80.870
G1 F1800.000 E1.00000
G1 X35.670 Y80.670 F540.000 E1.00435
G1 X36.270 Y80.150 E1.01719
G1 X36.480 Y79.990 E1.02146
G1 X36.930 Y79.700 E1.03012
G1 X37.390 Y79.450 E1.03858
G1 X37.880 Y79.230 E1.04727
G1 X38.380 Y79.060 E1.05581
G1 X38.890 Y78.930 E1.06432
G1 X39.420 Y78.840 E1.07301
G1 X39.940 Y78.800 E1.08145
G1 X160.050 Y78.800 E3.02377
G1 X160.570 Y78.840 E3.03221
G1 X161.100 Y78.930 E3.04090
G1 X161.610 Y79.060 E3.04941
G1 X162.110 Y79.230 E3.05795
G1 X162.600 Y79.450 E3.06664
G1 X163.290 Y79.840 E3.07946
G1 X163.510 Y79.990 E3.08376
G1 X163.930 Y80.320 E3.09240
G1 X164.320 Y80.670 E3.10087
G1 X164.840 Y81.270 E3.11371
G1 X165.000 Y81.480 E3.11798
G1 X165.290 Y81.930 E3.12664
G1 X165.540 Y82.390 E3.13511
G1 X165.760 Y82.880 E3.14379
G1 X165.930 Y83.380 E3.15233
G1 X166.060 Y83.890 E3.16084
G1 X166.150 Y84.420 E3.16954
G1 X166.190 Y84.940 E3.17797
G1 X166.190 Y90.050 E3.26061
G1 X166.140 Y90.590 E3.26938
G1 X165.990 Y91.390 E3.28254
G1 X165.920 Y91.650 E3.28689
G1 X165.740 Y92.160 E3.29564
G1 X165.520 Y92.650 E3.30432
G1 X165.110 Y93.350 E3.31744
G1 X164.620 Y94.000 E3.33061
G1 X164.240 Y94.390 E3.33941
G1 X163.840 Y94.750 E3.34811
G1 X163.410 Y95.070 E3.35678
G1 X122.940 Y120.360 E4.12851
G1 X122.450 Y120.610 E4.13740
G1 X121.940 Y120.820 E4.14632
G1 X121.680 Y120.910 E4.15077
G1 X121.150 Y121.050 E4.15964
G1 X120.330 Y121.170 E4.17304
G1 X120.060 Y121.190 E4.17742
G1 X39.940 Y121.190 E5.47305
G1 X39.420 Y121.150 E5.48149
G1 X38.890 Y121.060 E5.49018
G1 X38.380 Y120.930 E5.49869
G1 X37.880 Y120.760 E5.50723
G1 X37.390 Y120.540 E5.51592
G1 X36.700 Y120.150 E5.52874
G1 X36.480 Y120.000 E5.53304
G1 X36.060 Y119.670 E5.54168
G1 X35.670 Y119.320 E5.55015
G1 X35.150 Y118.720 E5.56299
G1 X34.990 Y118.510 E5.56726
G1 X34.700 Y118.060 E5.57592
G1 X34.450 Y117.600 E5.58439
G1 X34.230 Y117.110 E5.59307
G1 X34.060 Y116.610 E5.60161
G1 X33.930 Y116.100 E5.61012
G1 X33.840 Y115.570 E5.61882
G1 X33.800 Y115.050 E5.62725
G1 X33.800 Y84.940 E6.11417
G1 X33.840 Y84.420 E6.12260
G1 X33.930 Y83.890 E6.13129
G1 X34.060 Y83.380 E6.13980
G1 X34.230 Y82.880 E6.14834
G1 X34.450 Y82.390 E6.15703
G1 X34.840 Y81.700 E6.16985
G1 X34.990 Y81.480 E6.17415
G1 X35.320 Y81.060 E6.18279
G1 X35.448 Y80.917 E6.18589
G1 F1800.000 E5.18589
G92 E0
G1 X41.041 Y113.959 F7800.000
G1 F1800.000 E1.00000
G1 X41.041 Y86.041 F540.000 E1.45146
G1 X158.959 Y86.041 E3.35833
G1 X158.959 Y88.959 E3.40551
G1 X43.959 Y88.959 E5.26520
G1 X43.959 Y111.041 E5.62230
G1 X118.959 Y111.041 E6.83515
G1 X118.959 Y113.959 E6.88233
G1 X41.105 Y113.959 E8.14132
G1 X40.627 Y114.373 F7800.000
G1 X40.627 Y85.627 F540.000 E8.60619
G1 X159.373 Y85.627 E10.52647
G1 X159.373 Y89.373 E10.58706
G1 X44.373 Y89.373 E12.44675
G1 X44.373 Y110.627 E12.79044
G1 X119.373 Y110.627 E14.00329
G1 X119.373 Y114.373 E14.06388
G1 X40.690 Y114.373 E15.33628
G1 X40.212 Y114.788 F7800.000
G1 X40.212 Y85.212 F540.000 E15.81456
G1 X159.788 Y85.212 E17.74825
G1 X159.788 Y89.788 E17.82225
G1 X44.788 Y89.788 E19.68194
G1 X44.788 Y110.212 E20.01222
G1 X119.788 Y110.212 E21.22506
G1 X119.788 Y114.788 E21.29906
G1 X40.276 Y114.788 E22.58487
G1 X41.576 Y113.664 F7800.000
G1 X41.336 Y113.424 F1080.000 E22.59039
G1 X41.336 Y112.835 F7800.000
G1 X42.164 Y113.664 F1080.000 E22.60945
G1 X42.753 Y113.664 F7800.000
G1 X41.336 Y112.247 F1080.000 E22.64204
G1 X41.336 Y111.659 F7800.000
G1 X43.341 Y113.664 F1080.000 E22.68817
G1 X43.930 Y113.664 F7800.000
G1 X41.336 Y111.070 F1080.000 E22.74783
G1 X41.336 Y110.482 F7800.000
G1 X44.518 Y113.664 F1080.000 E22.82102
G1 X45.106 Y113.664 F7800.000
G1 X41.336 Y109.893 F1080.000 E22.90775
G1 X41.335 Y109.305 F7800.000
G1 X45.695 Y113.665 F1080.000 E23.00802
G1 X46.284 Y113.664 F7800.000
G1 X43.955 Y111.335 F1080.000 E23.06157
G1 X43.665 Y111.045 F7800.000
G1 X41.336 Y108.716 F1080.000 E23.11513
G1 X41.336 Y108.128 F7800.000
G1 X43.664 Y110.456 F1080.000 E23.16868
G1 X43.664 Y109.868 F7800.000
G1 X41.336 Y107.539 F1080.000 E23.22224
G1 X41.336 Y106.951 F7800.000
G1 X43.664 Y109.279 F1080.000 E23.27579
G1 X43.664 Y108.691 F7800.000
G1 X41.336 Y106.362 F1080.000 E23.32935
G1 X41.336 Y105.774 F7800.000
G1 X43.664 Y108.103 F1080.000 E23.38290
G1 X43.664 Y107.514 F7800.000
G1 X41.336 Y105.186 F1080.000 E23.43646
G1 X41.336 Y104.597 F7800.000
G1 X43.664 Y106.926 F1080.000 E23.49001
G1 X43.664 Y106.337 F7800.000
G1 X41.335 Y104.009 F1080.000 E23.54356
G1 X41.336 Y103.420 F7800.000
G1 X43.665 Y105.748 F1080.000 E23.59712
G1 X43.664 Y105.160 F7800.000
G1 X41.336 Y102.831 F1080.000 E23.65067
G1 X41.336 Y102.243 F7800.000
G1 X43.664 Y104.571 F1080.000 E23.70423
G1 X43.664 Y103.983 F7800.000
G1 X41.336 Y101.655 F1080.000 E23.75778
G1 X41.336 Y101.066 F7800.000
G1 X43.664 Y103.395 F1080.000 E23.81134
G1 X43.664 Y102.806 F7800.000
G1 X41.336 Y100.478 F1080.000 E23.86489
G1 X41.336 Y99.889 F7800.000
G1 X43.664 Y102.218 F1080.000 E23.91845
G1 X43.664 Y101.629 F7800.000
G1 X41.336 Y99.301 F1080.000 E23.97200
G1 X41.335 Y98.713 F7800.000
G1 X43.664 Y101.041 F1080.000 E24.02555
G1 X43.665 Y100.452 F7800.000
G1 X41.336 Y98.123 F1080.000 E24.07911
G1 X41.336 Y97.535 F7800.000
G1 X43.664 Y99.864 F1080.000 E24.13267
G1 X43.664 Y99.275 F7800.000
G1 X41.336 Y96.947 F1080.000 E24.18622
G1 X41.336 Y96.358 F7800.000
G1 X43.664 Y98.687 F1080.000 E24.23977
G1 X43.664 Y98.098 F7800.000
G1 X41.336 Y95.770 F1080.000 E24.29333
G1 X41.336 Y95.181 F7800.000
G1 X43.664 Y97.510 F1080.000 E24.34688
G1 X43.664 Y96.922 F7800.000
G1 X41.336 Y94.593 F1080.000 E24.40044
G1 X41.335 Y94.005 F7800.000
G1 X43.664 Y96.333 F1080.000 E24.45399
G1 X43.665 Y95.744 F7800.000
G1 X41.336 Y93.416 F1080.000 E24.50755
G1 X41.336 Y92.827 F7800.000
G1 X43.664 Y95.156 F1080.000 E24.56110
G1 X43.664 Y94.567 F7800.000
G1 X41.336 Y92.239 F1080.000 E24.61466
G1 X41.336 Y91.650 F7800.000
G1 X43.664 Y93.979 F1080.000 E24.66821
G1 X43.664 Y93.391 F7800.000
G1 X41.336 Y91.062 F1080.000 E24.72177
G1 X41.336 Y90.474 F7800.000
G1 X43.664 Y92.802 F1080.000 E24.77532
G1 X43.664 Y92.214 F7800.000
G1 X41.336 Y89.885 F1080.000 E24.82888
G1 X41.336 Y89.297 F7800.000
G1 X43.664 Y91.625 F1080.000 E24.88243
G1 X43.664 Y91.037 F7800.000
G1 X41.335 Y88.709 F1080.000 E24.93598
G1 X41.336 Y88.119 F7800.000
G1 X43.665 Y90.448 F1080.000 E24.98954
G1 X43.664 Y89.859 F7800.000
G1 X41.336 Y87.531 F1080.000 E25.04309
G1 X41.336 Y86.943 F7800.000
G1 X43.664 Y89.271 F1080.000 E25.09665
G1 X43.664 Y88.683 F7800.000
G1 X41.336 Y86.354 F1080.000 E25.15020
G1 X41.906 Y86.336 F7800.000
G1 X44.234 Y88.664 F1080.000 E25.20376
G1 X44.823 Y88.664 F7800.000
G1 X42.494 Y86.336 F1080.000 E25.25731
G1 X43.082 Y86.336 F7800.000
G1 X45.411 Y88.664 F1080.000 E25.31087
G1 X45.999 Y88.665 F7800.000
G1 X43.671 Y86.336 F1080.000 E25.36442
G1 X44.260 Y86.335 F7800.000
G1 X46.588 Y88.664 F1080.000 E25.41798
G1 X47.177 Y88.664 F7800.000
G1 X44.848 Y86.336 F1080.000 E25.47153
G1 X45.437 Y86.336 F7800.000
G1 X47.765 Y88.664 F1080.000 E25.52509
G1 X48.354 Y88.664 F7800.000
G1 X46.025 Y86.336 F1080.000 E25.57864
G1 X46.614 Y86.336 F7800.000
G1 X48.942 Y88.664 F1080.000 E25.63219
G1 X49.530 Y88.664 F7800.000
G1 X47.202 Y86.336 F1080.000 E25.68575
G1 X47.790 Y86.336 F7800.000
G1 X50.119 Y88.664 F1080.000 E25.73931
G1 X50.707 Y88.664 F7800.000
G1 X48.379 Y86.336 F1080.000 E25.79286
G1 X48.967 Y86.336 F7800.000
G1 X51.296 Y88.665 F1080.000 E25.84641
G1 X51.885 Y88.664 F7800.000
G1 X49.556 Y86.335 F1080.000 E25.89997
G1 X50.145 Y86.336 F7800.000
G1 X52.473 Y88.664 F1080.000 E25.95352
G1 X53.062 Y88.664 F7800.000
G1 X50.733 Y86.336 F1080.000 E26.00708
G1 X51.321 Y86.336 F7800.000
G1 X53.650 Y88.664 F1080.000 E26.06063
G1 X54.238 Y88.664 F7800.000
G1 X51.910 Y86.336 F1080.000 E26.11419
G1 X52.498 Y86.336 F7800.000
G1 X54.827 Y88.664 F1080.000 E26.16774
G1 X55.415 Y88.664 F7800.000
G1 X53.087 Y86.336 F1080.000 E26.22130
G1 X53.675 Y86.336 F7800.000
G1 X56.003 Y88.664 F1080.000 E26.27485
G1 X56.592 Y88.665 F7800.000
G1 X54.263 Y86.336 F1080.000 E26.32840
G1 X54.853 Y86.335 F7800.000
G1 X57.181 Y88.664 F1080.000 E26.38196
G1 X57.769 Y88.664 F7800.000
G1 X55.441 Y86.336 F1080.000 E26.43552
G1 X56.029 Y86.336 F7800.000
G1 X58.358 Y88.664 F1080.000 E26.48907
G1 X58.946 Y88.664 F7800.000
G1 X56.618 Y86.336 F1080.000 E26.54262
G1 X57.206 Y86.336 F7800.000
G1 X59.535 Y88.664 F1080.000 E26.59618
G1 X60.123 Y88.664 F7800.000
G1 X57.794 Y86.336 F1080.000 E26.64973
G1 X58.383 Y86.336 F7800.000
G1 X60.711 Y88.664 F1080.000 E26.70329
G1 X61.300 Y88.665 F7800.000
G1 X58.971 Y86.336 F1080.000 E26.75684
G1 X59.560 Y86.335 F7800.000
G1 X61.889 Y88.664 F1080.000 E26.81040
G1 X62.477 Y88.664 F7800.000
G1 X60.149 Y86.336 F1080.000 E26.86395
G1 X60.737 Y86.336 F7800.000
G1 X63.066 Y88.664 F1080.000 E26.91751
G1 X63.654 Y88.664 F7800.000
G1 X61.326 Y86.336 F1080.000 E26.97106
G1 X61.914 Y86.336 F7800.000
G1 X64.242 Y88.664 F1080.000 E27.02462
G1 X64.831 Y88.664 F7800.000
G1 X62.502 Y86.336 F1080.000 E27.07817
G1 X63.091 Y86.336 F7800.000
G1 X65.419 Y88.664 F1080.000 E27.13173
G1 X66.008 Y88.664 F7800.000
G1 X63.679 Y86.336 F1080.000 E27.18528
G1 X64.268 Y86.336 F7800.000
G1 X66.596 Y88.665 F1080.000 E27.23883
G1 X67.185 Y88.664 F7800.000
G1 X64.857 Y86.335 F1080.000 E27.29239
G1 X65.445 Y86.336 F7800.000
G1 X67.774 Y88.664 F1080.000 E27.34594
G1 X68.362 Y88.664 F7800.000
G1 X66.033 Y86.336 F1080.000 E27.39950
G1 X66.622 Y86.336 F7800.000
G1 X68.950 Y88.664 F1080.000 E27.45305
G1 X69.539 Y88.664 F7800.000
G1 X67.210 Y86.336 F1080.000 E27.50661
G1 X67.799 Y86.336 F7800.000
G1 X70.127 Y88.664 F1080.000 E27.56016
G1 X70.715 Y88.664 F7800.000
G1 X68.387 Y86.336 F1080.000 E27.61372
G1 X68.975 Y86.336 F7800.000
G1 X71.304 Y88.665 F1080.000 E27.66727
G1 X71.893 Y88.664 F7800.000
G1 X69.564 Y86.335 F1080.000 E27.72083
G1 X70.153 Y86.335 F7800.000
G1 X72.481 Y88.664 F1080.000 E27.77438
G1 X73.070 Y88.664 F7800.000
G1 X70.741 Y86.336 F1080.000 E27.82794
G1 X71.330 Y86.336 F7800.000
G1 X73.658 Y88.664 F1080.000 E27.88149
G1 X74.247 Y88.664 F7800.000
G1 X71.918 Y86.336 F1080.000 E27.93504
G1 X72.506 Y86.336 F7800.000
G1 X74.835 Y88.664 F1080.000 E27.98860
G1 X75.423 Y88.664 F7800.000
G1 X73.095 Y86.336 F1080.000 E28.04215
G1 X73.683 Y86.336 F7800.000
G1 X76.012 Y88.664 F1080.000 E28.09571
G1 X76.600 Y88.665 F7800.000
G1 X74.272 Y86.336 F1080.000 E28.14926
G1 X74.861 Y86.335 F7800.000
G1 X77.189 Y88.664 F1080.000 E28.20282
G1 X77.778 Y88.664 F7800.000
G1 X75.449 Y86.336 F1080.000 E28.25637
G1 X76.038 Y86.336 F7800.000
G1 X78.366 Y88.664 F1080.000 E28.30993
G1 X78.955 Y88.664 F7800.000
G1 X76.626 Y86.336 F1080.000 E28.36349
G1 X77.214 Y86.336 F7800.000
G1 X79.543 Y88.664 F1080.000 E28.41705
G1 X80.131 Y88.664 F7800.000
G1 X77.803 Y86.336 F1080.000 E28.47060
G1 X78.391 Y86.336 F7800.000
G1 X80.720 Y88.664 F1080.000 E28.52416
G1 X81.308 Y88.664 F7800.000
G1 X78.980 Y86.336 F1080.000 E28.57771
G1 X79.568 Y86.336 F7800.000
G1 X81.896 Y88.664 F1080.000 E28.63126
G1 X82.485 Y88.664 F7800.000
G1 X80.157 Y86.335 F1080.000 E28.68481
G1 X80.746 Y86.336 F7800.000
G1 X83.074 Y88.664 F1080.000 E28.73835
G1 X83.663 Y88.664 F7800.000
G1 X81.334 Y86.336 F1080.000 E28.79191
G1 X81.922 Y86.336 F7800.000
G1 X84.251 Y88.664 F1080.000 E28.84547
G1 X84.839 Y88.664 F7800.000
G1 X82.511 Y86.336 F1080.000 E28.89903
G1 X83.099 Y86.336 F7800.000
G1 X85.428 Y88.664 F1080.000 E28.95258
G1 X86.016 Y88.664 F7800.000
G1 X83.687 Y86.336 F1080.000 E29.00614
G1 X84.275 Y86.336 F7800.000
G1 X86.604 Y88.664 F1080.000 E29.05970
G1 X87.193 Y88.664 F7800.000
G1 X84.865 Y86.336 F1080.000 E29.11324
G1 X85.454 Y86.336 F7800.000
G1 X87.781 Y88.664 F1080.000 E29.16679
G1 X88.371 Y88.664 F7800.000
G1 X86.042 Y86.336 F1080.000 E29.22035
G1 X86.630 Y86.336 F7800.000
G1 X88.959 Y88.664 F1080.000 E29.27390
G1 X89.547 Y88.664 F7800.000
G1 X87.218 Y86.336 F1080.000 E29.32746
G1 X87.807 Y86.336 F7800.000
G1 X90.135 Y88.664 F1080.000 E29.38102
G1 X90.724 Y88.664 F7800.000
G1 X88.395 Y86.336 F1080.000 E29.43458
G1 X88.983 Y86.336 F7800.000
G1 X91.312 Y88.664 F1080.000 E29.48814
G1 X91.900 Y88.664 F7800.000
G1 X89.572 Y86.336 F1080.000 E29.54170
G1 X90.161 Y86.336 F7800.000
G1 X92.489 Y88.664 F1080.000 E29.59524
G1 X93.078 Y88.664 F7800.000
G1 X90.750 Y86.336 F1080.000 E29.64878
G1 X91.338 Y86.336 F7800.000
G1 X93.667 Y88.664 F1080.000 E29.70234
G1 X94.255 Y88.664 F7800.000
G1 X91.926 Y86.336 F1080.000 E29.75590
G1 X92.515 Y86.336 F7800.000
G1 X94.843 Y88.664 F1080.000 E29.80946
G1 X95.432 Y88.664 F7800.000
G1 X93.103 Y86.336 F1080.000 E29.86302
G1 X93.691 Y86.336 F7800.000
G1 X96.020 Y88.664 F1080.000 E29.91658
G1 X96.608 Y88.664 F7800.000
G1 X94.280 Y86.336 F1080.000 E29.97014
G1 X94.869 Y86.336 F7800.000
G1 X97.197 Y88.664 F1080.000 E30.02368
G1 X97.786 Y88.664 F7800.000
G1 X95.458 Y86.336 F1080.000 E30.07722
G1 X96.046 Y86.336 F7800.000
G1 X98.375 Y88.664 F1080.000 E30.13078
G1 X98.963 Y88.664 F7800.000
G1 X96.634 Y86.336 F1080.000 E30.18434
G1 X97.223 Y86.336 F7800.000
G1 X99.551 Y88.664 F1080.000 E30.23790
G1 X100.140 Y88.664 F7800.000
G1 X97.811 Y86.336 F1080.000 E30.29145
G1 X98.399 Y86.336 F7800.000
G1 X100.728 Y88.664 F1080.000 E30.34501
G1 X101.316 Y88.664 F7800.000
G1 X98.988 Y86.336 F1080.000 E30.39857
G1 X99.576 Y86.336 F7800.000
G1 X101.905 Y88.664 F1080.000 E30.45213
G1 X102.494 Y88.664 F7800.000
G1 X100.166 Y86.336 F1080.000 E30.50567
G1 X100.754 Y86.336 F7800.000
G1 X103.082 Y88.664 F1080.000 E30.55922
G1 X103.671 Y88.664 F7800.000
G1 X101.342 Y86.336 F1080.000 E30.61277
G1 X101.931 Y86.336 F7800.000
G1 X104.259 Y88.664 F1080.000 E30.66633
G1 X104.848 Y88.664 F7800.000
G1 X102.519 Y86.336 F1080.000 E30.71989
G1 X103.107 Y86.336 F7800.000
G1 X105.436 Y88.664 F1080.000 E30.77345
G1 X106.024 Y88.664 F7800.000
G1 X103.695 Y86.336 F1080.000 E30.82701
G1 X104.284 Y86.336 F7800.000
G1 X106.612 Y88.664 F1080.000 E30.88057
G1 X107.201 Y88.664 F7800.000
G1 X104.872 Y86.336 F1080.000 E30.93413
G1 X105.462 Y86.336 F7800.000
G1 X107.790 Y88.664 F1080.000 E30.98767
G1 X108.378 Y88.664 F7800.000
G1 X106.050 Y86.336 F1080.000 E31.04121
G1 X106.638 Y86.336 F7800.000
G1 X108.967 Y88.664 F1080.000 E31.09477
G1 X109.555 Y88.664 F7800.000
G1 X107.227 Y86.336 F1080.000 E31.14833
G1 X107.815 Y86.336 F7800.000
G1 X110.144 Y88.664 F1080.000 E31.20189
G1 X110.732 Y88.664 F7800.000
G1 X108.403 Y86.336 F1080.000 E31.25545
G1 X108.992 Y86.336 F7800.000
G1 X111.320 Y88.664 F1080.000 E31.30901
G1 X111.909 Y88.664 F7800.000
G1 X109.580 Y86.336 F1080.000 E31.36256
G1 X110.170 Y86.336 F7800.000
G1 X112.498 Y88.664 F1080.000 E31.41611
G1 X113.086 Y88.664 F7800.000
G1 X110.758 Y86.336 F1080.000 E31.46965
G1 X111.346 Y86.336 F7800.000
G1 X113.675 Y88.664 F1080.000 E31.52321
G1 X114.263 Y88.664 F7800.000
G1 X111.935 Y86.336 F1080.000 E31.57677
G1 X112.523 Y86.336 F7800.000
G1 X114.852 Y88.664 F1080.000 E31.63033
G1 X115.440 Y88.664 F7800.000
G1 X113.111 Y86.336 F1080.000 E31.68388
G1 X113.700 Y86.336 F7800.000
G1 X116.028 Y88.664 F1080.000 E31.73744
G1 X116.617 Y88.664 F7800.000
G1 X114.288 Y86.336 F1080.000 E31.79100
G1 X114.876 Y86.336 F7800.000
G1 X117.205 Y88.664 F1080.000 E31.84456
G1 X117.794 Y88.664 F7800.000
G1 X115.466 Y86.336 F1080.000 E31.89810
G1 X116.054 Y86.336 F7800.000
G1 X118.382 Y88.664 F1080.000 E31.95165
G1 X118.971 Y88.664 F7800.000
G1 X116.643 Y86.336 F1080.000 E32.00520
G1 X117.231 Y86.336 F7800.000
G1 X119.560 Y88.664 F1080.000 E32.05876
G1 X120.148 Y88.664 F7800.000
G1 X117.819 Y86.336 F1080.000 E32.11232
G1 X118.408 Y86.336 F7800.000
G1 X120.736 Y88.664 F1080.000 E32.16588
G1 X121.325 Y88.664 F7800.000
