; generated by Slic3r 0.9.8 on 2013-03-23 at 13:18:18

; layer_height = 0.3
; perimeters = 3
; top_solid_layers = 3
; bottom_solid_layers = 3
; fill_density = 0.3
; perimeter_speed = 50
; infill_speed = 80
; travel_speed = 100
; scale = 1
; nozzle_diameter = 0.4
; filament_diameter = 2.85
; extrusion_multiplier = 1
; perimeters extrusion width = 0.42mm
; infill extrusion width = 0.42mm
; first layer extrusion width = 0.42mm

M107
; G28 home all axes
G90 ; use absolute coordinates
G21 ; set units to millimeters
G92 E0
M82 ; use absolute distances for extrusion
G1 F1800.000 E-2.60000
G1 Z0.600
G92 E0
G1 X35.210 Y111.200 F6000.000
G1 Z0.300
G1 F1800.000 E2.60000
G1 X34.680 Y111.180 F900.000 E2.61045
G1 X33.890 Y111.060 E2.62619
G1 X33.380 Y110.930 E2.63656
G1 X32.630 Y110.660 E2.65226
G1 X32.150 Y110.430 E2.66274
G1 X31.480 Y110.000 E2.67842
G1 X31.060 Y109.680 E2.68883
G1 X30.670 Y109.320 E2.69928
G1 X30.310 Y108.930 E2.70973
G1 X29.990 Y108.510 E2.72014
G1 X29.560 Y107.840 E2.73582
G1 X29.330 Y107.360 E2.74630
G1 X29.060 Y106.610 E2.76200
G1 X28.930 Y106.100 E2.77237
G1 X28.810 Y105.310 E2.78811
G1 X28.790 Y104.780 E2.79856
G1 X28.790 Y75.210 E3.38104
G1 X28.810 Y74.680 E3.39149
G1 X28.880 Y74.150 E3.40202
G1 X28.990 Y73.630 E3.41249
G1 X29.140 Y73.130 E3.42277
G1 X29.330 Y72.630 E3.43331
G1 X29.560 Y72.150 E3.44379
G1 X29.990 Y71.480 E3.45947
G1 X30.310 Y71.060 E3.46988
G1 X30.670 Y70.670 E3.48033
G1 X31.060 Y70.310 E3.49079
G1 X31.480 Y69.990 E3.50119
G1 X32.150 Y69.560 E3.51687
G1 X32.880 Y69.230 E3.53265
G1 X33.630 Y68.990 E3.54816
G1 X34.150 Y68.880 E3.55863
G1 X34.680 Y68.810 E3.56916
G1 X35.210 Y68.790 E3.57961
G1 X154.780 Y68.790 E5.93494
G1 X155.310 Y68.810 E5.94539
G1 X155.840 Y68.880 E5.95592
G1 X156.360 Y68.990 E5.96639
G1 X157.110 Y69.230 E5.98190
G1 X157.600 Y69.440 E5.99241
G1 X158.070 Y69.700 E6.00299
G1 X158.720 Y70.140 E6.01845
G1 X159.130 Y70.490 E6.02907
G1 X159.500 Y70.860 E6.03937
G1 X159.850 Y71.270 E6.04999
G1 X160.290 Y71.920 E6.06545
G1 X160.550 Y72.390 E6.07603
G1 X160.760 Y72.880 E6.08654
G1 X161.000 Y73.630 E6.10205
G1 X161.110 Y74.150 E6.11252
G1 X161.180 Y74.680 E6.12305
G1 X161.200 Y75.210 E6.13350
G1 X161.200 Y79.780 E6.22352
G1 X161.180 Y80.320 E6.23416
G1 X161.150 Y80.590 E6.23951
G1 X161.060 Y81.120 E6.25010
G1 X160.990 Y81.390 E6.25560
G1 X160.840 Y81.900 E6.26607
G1 X160.640 Y82.410 E6.27686
G1 X160.260 Y83.130 E6.29290
G1 X159.960 Y83.580 E6.30355
G1 X159.440 Y84.200 E6.31949
G1 X159.050 Y84.570 E6.33008
G1 X158.630 Y84.920 E6.34085
G1 X158.180 Y85.220 E6.35150
G1 X118.180 Y110.220 E7.28067
G1 X117.700 Y110.500 E7.29162
G1 X117.450 Y110.620 E7.29708
G1 X116.940 Y110.820 E7.30787
G1 X116.420 Y110.990 E7.31865
G1 X115.610 Y111.150 E7.33491
G1 X115.330 Y111.180 E7.34046
G1 X114.780 Y111.200 E7.35130
G1 X35.273 Y111.200 E8.91746
G1 X35.210 Y111.200 E8.91870
G1 F1800.000 E6.31870
G1 Z0.600
G92 E0
G1 X36.050 Y76.050 F6000.000
G1 Z0.300
G1 F1800.000 E2.60000
G1 X153.950 Y76.050 F900.000 E4.92245
G1 X153.950 Y78.950 E4.97958
G1 X38.950 Y78.950 E7.24489
G1 X38.950 Y101.050 E7.68022
G1 X113.950 Y101.050 E9.15760
G1 X113.950 Y103.950 E9.21473
G1 X36.050 Y103.950 E10.74924
G1 X36.050 Y76.113 E11.29760
G1 X36.050 Y76.050 E11.29883
G1 X35.631 Y75.631 F6000.000
G1 X154.369 Y75.631 F900.000 E13.63778
G1 X154.369 Y79.369 E13.71142
G1 X39.369 Y79.369 E15.97673
G1 X39.369 Y100.631 E16.39556
G1 X114.369 Y100.631 E17.87293
G1 X114.369 Y104.369 E17.94657
G1 X35.631 Y104.369 E19.49758
G1 X35.631 Y75.694 E20.06244
G1 X35.631 Y75.631 E20.06368
G1 X35.212 Y75.212 F6000.000
G1 X154.788 Y75.212 F900.000 E22.41913
G1 X154.788 Y79.788 E22.50927
G1 X39.788 Y79.788 E24.77458
G1 X39.788 Y100.212 E25.17690
G1 X114.788 Y100.212 E26.65428
G1 X114.788 Y104.788 E26.74442
G1 X35.212 Y104.788 E28.31194
G1 X35.212 Y75.275 E28.89330
G1 X35.212 Y75.212 E28.89453
G1 X35.575 Y75.421 F6000.000
G1 F1800.000 E26.29453
G1 Z0.600
G92 E0
G1 X38.885 Y78.665 F6000.000
G1 Z0.300
G1 F1800.000 E2.60000
G1 X36.556 Y76.335 F1440.000 E2.66497
G1 X37.149 Y76.335 E2.67667
G1 X39.478 Y78.665 E2.74164
G1 X40.071 Y78.665 E2.75334
G1 X37.742 Y76.335 E2.81831
G1 X38.335 Y76.335 E2.83001
G1 X40.664 Y78.665 E2.89499
G1 X41.257 Y78.665 E2.90668
G1 X38.928 Y76.335 E2.97166
G1 X39.521 Y76.335 E2.98335
G1 X41.851 Y78.665 E3.04833
G1 X42.444 Y78.665 E3.06002
G1 X40.114 Y76.335 E3.12500
G1 X40.707 Y76.335 E3.13670
G1 X43.037 Y78.665 E3.20167
G1 X43.630 Y78.665 E3.21337
G1 X41.300 Y76.335 E3.27834
G1 X41.894 Y76.335 E3.29004
G1 X44.223 Y78.665 E3.35501
G1 X44.816 Y78.665 E3.36671
G1 X42.487 Y76.335 E3.43168
G1 X43.080 Y76.335 E3.44338
G1 X45.409 Y78.665 E3.50835
G1 X46.002 Y78.665 E3.52005
G1 X43.673 Y76.335 E3.58503
G1 X44.266 Y76.335 E3.59672
G1 X46.595 Y78.665 E3.66170
G1 X47.189 Y78.665 E3.67339
G1 X44.859 Y76.335 E3.73837
G1 X45.452 Y76.335 E3.75006
G1 X47.782 Y78.665 E3.81504
G1 X48.375 Y78.665 E3.82673
G1 X46.045 Y76.335 E3.89171
G1 X46.638 Y76.335 E3.90340
G1 X48.968 Y78.665 E3.96838
G1 X49.561 Y78.665 E3.98007
G1 X47.231 Y76.335 E4.04505
G1 X47.825 Y76.335 E4.05674
G1 X50.154 Y78.665 E4.12172
G1 X50.747 Y78.665 E4.13342
G1 X48.418 Y76.335 E4.19839
G1 X49.011 Y76.335 E4.21009
G1 X51.340 Y78.665 E4.27506
G1 X51.933 Y78.665 E4.28676
G1 X49.604 Y76.335 E4.35173
G1 X50.197 Y76.335 E4.36343
G1 X52.527 Y78.665 E4.42840
G1 X53.120 Y78.665 E4.44010
G1 X50.790 Y76.335 E4.50507
G1 X51.383 Y76.335 E4.51677
G1 X53.713 Y78.665 E4.58174
G1 X54.306 Y78.665 E4.59344
G1 X51.976 Y76.335 E4.65841
G1 X52.569 Y76.335 E4.67011
G1 X54.899 Y78.665 E4.73509
G1 X55.492 Y78.665 E4.74678
G1 X53.163 Y76.335 E4.81176
G1 X53.755 Y76.335 E4.82345
G1 X56.085 Y78.665 E4.88842
G1 X56.679 Y78.665 E4.90013
G1 X54.349 Y76.335 E4.96510
G1 X54.942 Y76.335 E4.97679
G1 X57.271 Y78.665 E5.04177
G1 X57.864 Y78.665 E5.05346
G1 X55.535 Y76.336 E5.11843
G1 X56.128 Y76.335 E5.13014
G1 X58.458 Y78.665 E5.19511
G1 X59.051 Y78.665 E5.20680
G1 X56.721 Y76.335 E5.27178
G1 X57.315 Y76.335 E5.28348
G1 X59.644 Y78.664 E5.34846
G1 X60.237 Y78.665 E5.36015
G1 X57.907 Y76.335 E5.42512
G1 X58.500 Y76.336 E5.43681
G1 X60.830 Y78.665 E5.50179
G1 X61.423 Y78.665 E5.51349
G1 X59.094 Y76.335 E5.57847
G1 X59.687 Y76.335 E5.59016
G1 X62.016 Y78.665 E5.65513
G1 X62.610 Y78.664 E5.66684
G1 X60.280 Y76.335 E5.73181
G1 X60.873 Y76.335 E5.74350
G1 X63.202 Y78.665 E5.80848
G1 X63.795 Y78.665 E5.82017
G1 X61.466 Y76.336 E5.88514
G1 X62.059 Y76.335 E5.89685
G1 X64.389 Y78.665 E5.96182
G1 X64.982 Y78.665 E5.97351
G1 X62.652 Y76.335 E6.03849
G1 X63.246 Y76.335 E6.05019
G1 X65.575 Y78.664 E6.11517
G1 X66.168 Y78.665 E6.12686
G1 X63.839 Y76.335 E6.19183
G1 X64.431 Y76.336 E6.20352
G1 X66.761 Y78.665 E6.26850
G1 X67.354 Y78.665 E6.28020
G1 X65.025 Y76.335 E6.34518
G1 X65.618 Y76.335 E6.35687
G1 X67.947 Y78.665 E6.42184
G1 X68.541 Y78.664 E6.43355
G1 X66.211 Y76.335 E6.49852
G1 X66.804 Y76.335 E6.51021
G1 X69.134 Y78.665 E6.57519
G1 X69.726 Y78.665 E6.58688
G1 X67.397 Y76.335 E6.65185
G1 X67.991 Y76.335 E6.66356
G1 X70.320 Y78.665 E6.72853
G1 X70.913 Y78.665 E6.74022
G1 X68.583 Y76.335 E6.80520
G1 X69.176 Y76.336 E6.81689
G1 X71.506 Y78.665 E6.88186
G1 X72.099 Y78.665 E6.89357
G1 X69.770 Y76.335 E6.95854
G1 X70.363 Y76.335 E6.97023
G1 X72.692 Y78.665 E7.03521
G1 X73.286 Y78.664 E7.04691
G1 X70.956 Y76.335 E7.11189
G1 X71.549 Y76.335 E7.12358
G1 X73.878 Y78.665 E7.18855
G1 X74.471 Y78.665 E7.20024
G1 X72.142 Y76.336 E7.26522
G1 X72.735 Y76.335 E7.27692
G1 X75.065 Y78.665 E7.34190
G1 X75.658 Y78.665 E7.35359
G1 X73.328 Y76.335 E7.41856
G1 X73.922 Y76.335 E7.43027
G1 X76.251 Y78.664 E7.49524
G1 X76.844 Y78.665 E7.50693
G1 X74.515 Y76.335 E7.57191
G1 X75.107 Y76.336 E7.58360
G1 X77.437 Y78.665 E7.64857
G1 X78.030 Y78.665 E7.66028
G1 X75.701 Y76.335 E7.72525
G1 X76.294 Y76.335 E7.73694
G1 X78.623 Y78.665 E7.80192
G1 X79.217 Y78.664 E7.81362
G1 X76.887 Y76.335 E7.87860
G1 X77.480 Y76.335 E7.89029
G1 X79.810 Y78.665 E7.95526
G1 X80.402 Y78.665 E7.96695
G1 X78.073 Y76.336 E8.03193
G1 X78.666 Y76.335 E8.04363
G1 X80.996 Y78.665 E8.10861
G1 X81.589 Y78.665 E8.12030
G1 X79.259 Y76.335 E8.18527
G1 X79.853 Y76.335 E8.19698
G1 X82.182 Y78.664 E8.26195
G1 X82.775 Y78.665 E8.27365
G1 X80.446 Y76.335 E8.33862
G1 X81.038 Y76.335 E8.35031
G1 X83.368 Y78.665 E8.41528
G1 X83.961 Y78.665 E8.42699
G1 X81.632 Y76.335 E8.49196
G1 X82.225 Y76.335 E8.50366
G1 X84.554 Y78.665 E8.56863
G1 X85.147 Y78.665 E8.58032
G1 X82.818 Y76.336 E8.64530
G1 X83.411 Y76.335 E8.65700
G1 X85.741 Y78.665 E8.72198
G1 X86.334 Y78.665 E8.73367
G1 X84.004 Y76.335 E8.79864
G1 X84.598 Y76.335 E8.81035
G1 X86.927 Y78.665 E8.87532
G1 X87.520 Y78.665 E8.88701
G1 X85.190 Y76.335 E8.95199
G1 X85.783 Y76.336 E8.96368
G1 X88.113 Y78.665 E9.02865
G1 X88.706 Y78.665 E9.04036
G1 X86.377 Y76.335 E9.10533
G1 X86.970 Y76.335 E9.11702
G1 X89.299 Y78.665 E9.18199
G1 X89.893 Y78.664 E9.19370
G1 X87.563 Y76.335 E9.25867
G1 X88.156 Y76.335 E9.27036
G1 X90.485 Y78.665 E9.33534
G1 X91.078 Y78.665 E9.34703
G1 X88.749 Y76.336 E9.41200
G1 X89.342 Y76.335 E9.42371
G1 X91.672 Y78.665 E9.48868
G1 X92.265 Y78.665 E9.50038
G1 X89.935 Y76.335 E9.56535
G1 X90.529 Y76.335 E9.57705
G1 X92.858 Y78.664 E9.64203
G1 X93.451 Y78.665 E9.65372
G1 X91.122 Y76.335 E9.71869
G1 X91.714 Y76.336 E9.73039
G1 X94.044 Y78.665 E9.79536
G1 X94.637 Y78.665 E9.80707
G1 X92.308 Y76.335 E9.87204
G1 X92.901 Y76.335 E9.88373
G1 X95.230 Y78.665 E9.94871
G1 X95.824 Y78.664 E9.96041
G1 X93.494 Y76.335 E10.02538
G1 X94.087 Y76.335 E10.03707
G1 X96.417 Y78.665 E10.10205
G1 X97.009 Y78.665 E10.11374
G1 X94.680 Y76.335 E10.17871
G1 X95.274 Y76.335 E10.19042
G1 X97.603 Y78.665 E10.25539
G1 X98.196 Y78.665 E10.26708
G1 X95.866 Y76.335 E10.33206
G1 X96.459 Y76.336 E10.34375
G1 X98.789 Y78.665 E10.40872
G1 X99.382 Y78.665 E10.42043
G1 X97.053 Y76.335 E10.48540
G1 X97.646 Y76.335 E10.49709
G1 X99.975 Y78.665 E10.56207
G1 X100.569 Y78.665 E10.57377
G1 X98.239 Y76.335 E10.63875
G1 X98.832 Y76.335 E10.65044
G1 X101.161 Y78.665 E10.71541
G1 X101.754 Y78.665 E10.72711
G1 X99.425 Y76.336 E10.79208
G1 X100.018 Y76.335 E10.80379
G1 X102.348 Y78.665 E10.86876
G1 X102.941 Y78.665 E10.88045
G1 X100.611 Y76.335 E10.94542
G1 X101.205 Y76.335 E10.95713
G1 X103.534 Y78.664 E11.02210
G1 X104.127 Y78.665 E11.03379
G1 X101.797 Y76.335 E11.09877
G1 X102.390 Y76.336 E11.11046
G1 X104.720 Y78.665 E11.17543
G1 X105.313 Y78.665 E11.18714
G1 X102.984 Y76.335 E11.25211
G1 X103.577 Y76.335 E11.26381
G1 X105.906 Y78.665 E11.32878
G1 X106.500 Y78.664 E11.34048
G1 X104.170 Y76.335 E11.40546
G1 X104.763 Y76.335 E11.41715
G1 X107.093 Y78.665 E11.48212
G1 X107.685 Y78.665 E11.49382
G1 X105.356 Y76.336 E11.55879
G1 X105.949 Y76.335 E11.57050
G1 X108.279 Y78.665 E11.63547
G1 X108.872 Y78.665 E11.64716
G1 X106.542 Y76.335 E11.71214
G1 X107.136 Y76.335 E11.72384
G1 X109.465 Y78.664 E11.78881
G1 X110.058 Y78.665 E11.80051
G1 X107.729 Y76.335 E11.86548
G1 X108.321 Y76.335 E11.87717
G1 X110.651 Y78.665 E11.94214
G1 X111.245 Y78.665 E11.95385
G1 X108.915 Y76.335 E12.01882
G1 X109.508 Y76.335 E12.03052
G1 X111.837 Y78.665 E12.09549
G1 X112.430 Y78.665 E12.10718
G1 X110.101 Y76.336 E12.17216
G1 X110.694 Y76.335 E12.18386
G1 X113.024 Y78.665 E12.24884
G1 X113.617 Y78.665 E12.26053
G1 X111.287 Y76.335 E12.32550
G1 X111.881 Y76.335 E12.33721
G1 X114.210 Y78.665 E12.40218
G1 X114.803 Y78.665 E12.41387
G1 X112.473 Y76.335 E12.47885
G1 X113.066 Y76.336 E12.49054
G1 X115.396 Y78.665 E12.55551
G1 X115.989 Y78.665 E12.56722
G1 X113.660 Y76.335 E12.63219
G1 X114.253 Y76.335 E12.64388
G1 X116.582 Y78.665 E12.70885
G1 X117.176 Y78.664 E12.72056
G1 X114.846 Y76.335 E12.78553
G1 X115.439 Y76.335 E12.79722
G1 X117.768 Y78.665 E12.86220
G1 X118.361 Y78.665 E12.87389
G1 X116.032 Y76.336 E12.93886
G1 X116.625 Y76.335 E12.95057
G1 X118.955 Y78.665 E13.01554
G1 X119.548 Y78.665 E13.02724
G1 X117.218 Y76.335 E13.09221
G1 X117.812 Y76.335 E13.10392
G1 X120.141 Y78.664 E13.16889
G1 X120.734 Y78.665 E13.18058
G1 X118.405 Y76.335 E13.24555
G1 X118.997 Y76.336 E13.25725
G1 X121.327 Y78.665 E13.32222
G1 X121.920 Y78.665 E13.33393
G1 X119.591 Y76.335 E13.39890
G1 X120.184 Y76.335 E13.41059
G1 X122.513 Y78.665 E13.47556
G1 X123.107 Y78.664 E13.48727
G1 X120.777 Y76.335 E13.55224
G1 X121.370 Y76.335 E13.56394
G1 X123.700 Y78.665 E13.62891
G1 X124.292 Y78.665 E13.64060
G1 X121.963 Y76.335 E13.70557
G1 X122.557 Y76.335 E13.71728
G1 X124.886 Y78.665 E13.78225
G1 X125.479 Y78.665 E13.79395
G1 X123.149 Y76.335 E13.85892
G1 X123.742 Y76.336 E13.87061
G1 X126.072 Y78.665 E13.93559
G1 X126.665 Y78.665 E13.94729
G1 X124.336 Y76.335 E14.01227
G1 X124.929 Y76.335 E14.02396
G1 X127.258 Y78.665 E14.08893
G1 X127.852 Y78.665 E14.10064
G1 X125.522 Y76.335 E14.16561
G1 X126.115 Y76.335 E14.17730
G1 X128.444 Y78.665 E14.24228
G1 X129.037 Y78.665 E14.25397
G1 X126.708 Y76.336 E14.31894
G1 X127.301 Y76.335 E14.33065
G1 X129.631 Y78.665 E14.39562
G1 X130.224 Y78.665 E14.40731
G1 X127.894 Y76.335 E14.47229
G1 X128.488 Y76.335 E14.48399
G1 X130.817 Y78.664 E14.54896
G1 X131.410 Y78.665 E14.56066
G1 X129.081 Y76.335 E14.62563
G1 X129.673 Y76.336 E14.63732
G1 X132.003 Y78.665 E14.70230
G1 X132.596 Y78.665 E14.71400
G1 X130.267 Y76.335 E14.77898
G1 X130.860 Y76.335 E14.79067
G1 X133.189 Y78.665 E14.85564
G1 X133.783 Y78.664 E14.86735
G1 X131.453 Y76.335 E14.93232
G1 X132.046 Y76.335 E14.94401
G1 X134.376 Y78.665 E15.00899
G1 X134.968 Y78.665 E15.02068
G1 X132.639 Y76.336 E15.08565
G1 X133.232 Y76.335 E15.09736
G1 X135.562 Y78.665 E15.16233
G1 X136.155 Y78.665 E15.17402
G1 X133.825 Y76.335 E15.23899
G1 X134.419 Y76.335 E15.25070
G1 X136.748 Y78.664 E15.31567
G1 X137.341 Y78.665 E15.32737
G1 X135.012 Y76.335 E15.39234
G1 X135.604 Y76.335 E15.40403
G1 X137.934 Y78.665 E15.46900
G1 X138.528 Y78.665 E15.48071
G1 X136.198 Y76.335 E15.54568
G1 X136.791 Y76.335 E15.55738
G1 X139.120 Y78.665 E15.62235
G1 X139.713 Y78.665 E15.63404
G1 X137.384 Y76.336 E15.69902
G1 X137.977 Y76.335 E15.71072
G1 X140.307 Y78.665 E15.77570
G1 X140.900 Y78.665 E15.78739
G1 X138.570 Y76.335 E15.85236
G1 X139.164 Y76.335 E15.86407
G1 X141.493 Y78.665 E15.92904
G1 X142.086 Y78.665 E15.94073
G1 X139.756 Y76.335 E16.00571
G1 X140.349 Y76.336 E16.01740
G1 X142.679 Y78.665 E16.08237
G1 X143.272 Y78.665 E16.09408
G1 X140.943 Y76.335 E16.15905
G1 X141.536 Y76.335 E16.17074
G1 X143.865 Y78.665 E16.23572
G1 X144.459 Y78.664 E16.24742
G1 X142.129 Y76.335 E16.31240
G1 X142.722 Y76.335 E16.32409
G1 X145.051 Y78.665 E16.38906
G1 X145.644 Y78.665 E16.40075
G1 X143.315 Y76.336 E16.46573
G1 X143.908 Y76.335 E16.47743
G1 X146.238 Y78.665 E16.54241
G1 X146.831 Y78.665 E16.55410
G1 X144.501 Y76.335 E16.61907
G1 X145.095 Y76.335 E16.63078
G1 X147.424 Y78.664 E16.69575
G1 X148.017 Y78.665 E16.70744
G1 X145.688 Y76.335 E16.77242
G1 X146.280 Y76.336 E16.78411
G1 X148.610 Y78.665 E16.84908
G1 X149.203 Y78.665 E16.86079
G1 X146.874 Y76.335 E16.92576
G1 X147.467 Y76.335 E16.93745
G1 X149.796 Y78.665 E17.00243
G1 X150.390 Y78.664 E17.01413
G1 X148.060 Y76.335 E17.07911
G1 X148.653 Y76.335 E17.09080
G1 X150.983 Y78.665 E17.15577
G1 X151.575 Y78.665 E17.16746
G1 X149.246 Y76.335 E17.23244
G1 X149.840 Y76.335 E17.24414
G1 X152.169 Y78.665 E17.30912
G1 X152.762 Y78.665 E17.32081
G1 X150.432 Y76.335 E17.38578
G1 X151.025 Y76.336 E17.39748
G1 X153.355 Y78.665 E17.46245
G1 X153.665 Y78.381 E17.47074
G1 X151.619 Y76.335 E17.52781
G1 X152.212 Y76.335 E17.53950
G1 X153.665 Y77.788 E17.58003
G1 X153.665 Y77.195 E17.59173
G1 X152.805 Y76.335 E17.61572
G1 X153.398 Y76.335 E17.62741
G1 X153.665 Y76.602 E17.63485
G1 F1800.000 E15.03485
G1 Z0.600
G92 E0
G1 X113.665 Y101.844 F6000.000
G1 Z0.300
G1 F1800.000 E2.60000
G1 X113.156 Y101.335 F1440.000 E2.61419
G1 X112.563 Y101.335 E2.62588
G1 X113.665 Y102.437 E2.65661
G1 X113.665 Y103.030 E2.66832
G1 X111.970 Y101.335 E2.71559
G1 X111.377 Y101.335 E2.72728
G1 X113.665 Y103.623 E2.79110
G1 X113.113 Y103.665 E2.80202
G1 X110.783 Y101.336 E2.86700
G1 X110.190 Y101.335 E2.87869
G1 X112.520 Y103.665 E2.94366
G1 X111.927 Y103.664 E2.95535
G1 X109.598 Y101.335 E3.02033
G1 X109.004 Y101.335 E3.03203
G1 X111.334 Y103.665 E3.09701
